dist/svgs/unicons/line/refresh.svg

<svg xmlns="http://www.w3.org/2000/svg" viewBox="0 0 24 24"><path d="M19.91 15.51h-4.53a1 1 0 000 2h2.4A8 8 0 014 12a1 1 0 00-2 0 10 10 0 0016.88 7.23V21a1 1 0 002 0v-4.5a1 1 0 00-.97-.99zM15 12a3 3 0 10-3 3 3 3 0 003-3zm-4 0a1 1 0 111 1 1 1 0 01-1-1zm1-10a10 10 0 00-6.88 2.77V3a1 1 0 00-2 0v4.5a1 1 0 001 1h4.5a1 1 0 000-2h-2.4A8 8 0 0120 12a1 1 0 002 0A10 10 0 0012 2z"/></svg>

<svg xmlns="http://www.w3.org/2000/svg" viewBox="0 0 24 24"><path d="M19.91,15.51H15.38a1,1,0,0,0,0,2h2.4A8,8,0,0,1,4,12a1,1,0,0,0-2,0,10,10,0,0,0,16.88,7.23V21a1,1,0,0,0,2,0V16.5A1,1,0,0,0,19.91,15.51ZM15,12a3,3,0,1,0-3,3A3,3,0,0,0,15,12Zm-4,0a1,1,0,1,1,1,1A1,1,0,0,1,11,12ZM12,2A10,10,0,0,0,5.12,4.77V3a1,1,0,0,0-2,0V7.5a1,1,0,0,0,1,1h4.5a1,1,0,0,0,0-2H6.22A8,8,0,0,1,20,12a1,1,0,0,0,2,0A10,10,0,0,0,12,2Z"/></svg>
